X: 11533
T: Eddie Moloney's Favourite
R: reel
M: 4/4
K: Edorian
B2GB eBGB|A2FA dAFA|B2GB eBGA|(3Bcd Ba gee2|
B2GB eBGB|A2FA dAFA|dBBA B2BA|(3Bcd BA gee2||
g2ef gfed|(3Bcd Ba gee2|gfef gefd|(3Bcded (3Bcd ef|
~g3e gfed|BzBA GEAG|~E3F ~G3A|(3Bcd ef gfed||

